public/logo-emblem.svg

<svg width="64" height="64" viewBox="0 0 64 64" fill="none" xmlns="http://www.w3.org/2000/svg">
<g clip-path="url(#clip0_4_117)">
<g clip-path="url(#clip1_4_117)">
<g clip-path="url(#clip2_4_117)">
<mask id="mask0_4_117" style="mask-type:alpha" maskUnits="userSpaceOnUse" x="0" y="0" width="64" height="64">
<rect width="64" height="64" fill="#D9D9D9"/>
</mask>
<g mask="url(#mask0_4_117)">
<g filter="url(#filter0_f_4_117)">
<path d="M57.3509 6.47441C58.2555 17.7429 49.4067 28.8471 37.5863 31.2765C25.766 33.7059 15.4504 26.5405 14.5457 15.272C13.641 4.00361 22.4899 -7.10068 34.3102 -9.53008C46.1305 -11.9595 56.4462 -4.79403 57.3509 6.47441Z" fill="#FFD366"/>
<path d="M17.6657 17.8816C15.0614 37.3433 5.97208 50.7296 -2.63597 47.7808C-11.244 44.832 -16.1111 26.6647 -13.5068 7.20304C-10.9026 -12.2586 -1.81323 -25.645 6.79481 -22.6962C15.4029 -19.7474 20.2699 -1.58008 17.6657 17.8816Z" fill="#FF3278"/>
<path d="M20.6433 43.3393C23.9447 52.1253 21.0701 64.5874 14.2226 71.1742C7.3751 77.761 -0.852183 75.9782 -4.15357 67.1922C-7.45496 58.4061 -4.58028 45.944 2.2672 39.3572C9.11468 32.7704 17.342 34.5532 20.6433 43.3393Z" fill="#D014FF"/>
<path d="M25.9752 68.8964C20.4525 76.5104 14.0209 79.0535 11.6099 74.5766C9.19893 70.0997 11.7215 60.2981 17.2443 52.6841C22.767 45.0701 29.1986 42.527 31.6096 47.0039C34.0205 51.4808 31.498 61.2824 25.9752 68.8964Z" fill="#5D85FF"/>
<path d="M50.104 42.9981C51.8119 53.039 46.6909 64.0114 38.666 67.5057C30.6412 70.9999 22.7512 65.6929 21.0434 55.652C19.3355 45.6111 24.4565 34.6387 32.4814 31.1444C40.5062 27.6501 48.3962 32.9572 50.104 42.9981Z" fill="#1FFFF4"/>
<path d="M77 43.5C77 58.1356 69.3888 70 60 70C50.6112 70 43 58.1356 43 43.5C43 28.8645 50.6112 17 60 17C69.3888 17 77 28.8645 77 43.5Z" fill="#644DFF"/>
</g>
</g>
</g>
<g filter="url(#filter1_d_4_117)">
<path d="M27.1143 31.7134C27.039 33.4735 26.562 35.0511 25.7043 36.5459C22.9382 41.3666 20.215 46.2127 17.4775 51.0503C17.1898 51.5588 16.881 52.0154 16.2084 51.9996C15.5769 51.9848 15.1096 51.5886 15.0286 50.9545C15.0061 50.7786 15.0139 50.5982 15.0138 50.4198C15.0127 43.4592 14.979 36.4983 15.0211 29.5379C15.062 22.7852 17.9685 17.638 23.6923 14.1996C26.1986 12.694 28.9579 12.0145 31.8835 12.0002C36.0848 11.9798 39.7947 13.3358 42.9856 16.083C46.2721 18.9125 48.2466 22.5142 48.8248 26.8674C49.4876 31.8585 48.2743 36.3458 45.1077 40.217C42.2686 43.6878 38.6059 45.7396 34.1829 46.3642C31.2998 46.7714 28.5218 46.3705 25.8196 45.3207C25.1722 45.0692 25.1728 45.0467 25.5225 44.4341C26.756 42.2731 27.9683 40.0993 29.2232 37.9512C31.5187 34.0218 36.1888 32.581 40.2562 34.5246C40.4964 34.6394 40.6979 34.7722 40.8943 34.4339C41.1121 34.0588 40.8059 33.9831 40.6147 33.8484C37.911 31.9431 36.4221 29.336 36.1866 25.9943C36.0655 24.2746 36.3817 22.6428 37.095 21.0845C37.122 21.0257 37.1584 20.97 37.1766 20.9087C37.2433 20.6845 37.5111 20.4571 37.1616 20.2376C36.809 20.0162 36.6804 20.2894 36.5299 20.5214C35.9534 21.4098 35.2653 22.2068 34.4263 22.8357C31.1022 25.3276 27.5464 25.7201 23.7733 23.977C23.594 23.8942 23.4044 23.6593 23.1853 23.9382C22.9554 24.231 23.0565 24.408 23.3367 24.5989C24.6815 25.5149 25.7039 26.7177 26.363 28.2245C26.8419 29.3193 27.0538 30.4783 27.1143 31.7134Z" fill="white" shape-rendering="crispEdges"/>
<path d="M31.8789 11C36.3196 10.9785 40.263 12.4198 43.6377 15.3252C47.1084 18.3133 49.2056 22.1369 49.8164 26.7354C50.5143 31.9901 49.2299 36.7575 45.8818 40.8506C42.8832 44.5164 38.9937 46.6948 34.3232 47.3545C31.2523 47.7882 28.3007 47.3577 25.457 46.2529C25.313 46.197 25.1241 46.1235 24.9688 46.0381C24.8261 45.9596 24.4876 45.7547 24.3467 45.3232C24.21 44.9042 24.3513 44.5439 24.4102 44.4053C24.4773 44.247 24.5772 44.0736 24.6543 43.9385C25.8808 41.7899 27.1016 39.6003 28.3594 37.4473C30.4031 33.9488 34.158 32.2142 37.9023 32.7686C36.2904 30.9447 35.3755 28.7047 35.1895 26.0645C35.1252 25.153 35.1734 24.2638 35.3271 23.3965C35.2286 23.4776 35.1293 23.5586 35.0264 23.6357C33.245 24.9712 31.3584 25.7742 29.376 25.9883C28.2865 26.1059 27.1877 26.0419 26.083 25.8066C26.5566 26.4148 26.9571 27.0868 27.2793 27.8232C27.8201 29.0595 28.0487 30.3459 28.1133 31.6641L28.1152 31.71L28.1133 31.7559C28.0309 33.682 27.5056 35.4156 26.5713 37.0439C23.8073 41.8611 21.087 46.7021 18.3477 51.543C18.2042 51.7966 17.9856 52.1708 17.6523 52.4678C17.2769 52.8023 16.7886 53.0132 16.1846 52.999C15.6632 52.9867 15.1561 52.8137 14.7539 52.4619C14.3488 52.1075 14.1059 51.6195 14.0371 51.0811C14.004 50.8221 14.0137 50.5383 14.0137 50.4199C14.0125 43.4658 13.9793 36.4965 14.0215 29.5322C14.0644 22.436 17.1501 16.9636 23.1777 13.3428C25.8563 11.7338 28.7961 11.015 31.8789 11Z" stroke="black" stroke-opacity="0.12" stroke-width="2" shape-rendering="crispEdges"/>
</g>
</g>
</g>
<defs>
<filter id="filter0_f_4_117" x="-38.2088" y="-47.1033" width="139.209" height="147.889" filterUnits="userSpaceOnUse" color-interpolation-filters="sRGB">
<feFlood flood-opacity="0" result="BackgroundImageFix"/>
<feBlend mode="normal" in="SourceGraphic" in2="BackgroundImageFix" result="shape"/>
<feGaussianBlur stdDeviation="12" result="effect1_foregroundBlur_4_117"/>
</filter>
<filter id="filter1_d_4_117" x="-1" y="3" width="65.9999" height="72" filterUnits="userSpaceOnUse" color-interpolation-filters="sRGB">
<feFlood flood-opacity="0" result="BackgroundImageFix"/>
<feColorMatrix in="SourceAlpha" type="matrix" values="0 0 0 0 0 0 0 0 0 0 0 0 0 0 0 0 0 0 127 0" result="hardAlpha"/>
<feOffset dy="7"/>
<feGaussianBlur stdDeviation="7"/>
<feComposite in2="hardAlpha" operator="out"/>
<feColorMatrix type="matrix" values="0 0 0 0 0 0 0 0 0 0 0 0 0 0 0 0 0 0 0.15 0"/>
<feBlend mode="normal" in2="BackgroundImageFix" result="effect1_dropShadow_4_117"/>
<feBlend mode="normal" in="SourceGraphic" in2="effect1_dropShadow_4_117" result="shape"/>
</filter>
<clipPath id="clip0_4_117">
<rect width="64" height="64" fill="white"/>
</clipPath>
<clipPath id="clip1_4_117">
<rect width="64" height="64" fill="white"/>
</clipPath>
<clipPath id="clip2_4_117">
<rect width="64" height="64" rx="24" fill="white"/>
</clipPath>
</defs>
</svg>

<svg xmlns="http://www.w3.org/2000/svg" width="64" height="64" fill="none"><g clip-path="url(#a)"><g clip-path="url(#b)"><g clip-path="url(#c)"><mask id="d" width="64" height="64" x="0" y="0" maskUnits="userSpaceOnUse" style="mask-type:alpha"><path fill="#D9D9D9" d="M0 0h64v64H0z"/></mask><g filter="url(#e)" mask="url(#d)"><path fill="#FFD366" d="M57.35 6.474c.905 11.269-7.943 22.373-19.764 24.802-11.82 2.43-22.136-4.735-23.04-16.004C13.64 4.004 22.49-7.101 34.31-9.53c11.82-2.43 22.136 4.736 23.04 16.004Z"/><path fill="#FF3278" d="M17.666 17.882C15.06 37.343 5.972 50.73-2.636 47.78c-8.608-2.949-13.475-21.116-10.87-40.578 2.603-19.462 11.693-32.848 20.3-29.9 8.609 2.95 13.476 21.117 10.872 40.579Z"/><path fill="#D014FF" d="M20.643 43.34c3.302 8.785.427 21.247-6.42 27.834-6.848 6.587-15.075 4.804-18.377-3.982-3.301-8.786-.426-21.248 6.421-27.835 6.848-6.587 15.075-4.804 18.376 3.982Z"/><path fill="#5D85FF" d="M25.975 68.896c-5.523 7.614-11.954 10.157-14.365 5.68-2.411-4.476.112-14.278 5.634-21.892 5.523-7.614 11.955-10.157 14.366-5.68 2.41 4.477-.112 14.278-5.635 21.892Z"/><path fill="#1FFFF4" d="M50.104 42.998c1.708 10.041-3.413 21.013-11.438 24.508C30.641 71 22.751 65.693 21.043 55.652c-1.707-10.04 3.413-21.013 11.438-24.508 8.025-3.494 15.915 1.813 17.623 11.854Z"/><path fill="#644DFF" d="M77 43.5C77 58.136 69.389 70 60 70S43 58.136 43 43.5 50.611 17 60 17s17 11.864 17 26.5Z"/></g></g><g filter="url(#f)" shape-rendering="crispEdges"><path fill="#fff" d="M27.114 31.713a10.388 10.388 0 0 1-1.41 4.833c-2.766 4.82-5.489 9.667-8.227 14.504-.287.509-.596.965-1.269.95-.631-.015-1.098-.411-1.18-1.045-.022-.176-.014-.357-.014-.535-.001-6.96-.035-13.922.007-20.882.041-6.753 2.947-11.9 8.671-15.338 2.507-1.506 5.266-2.185 8.192-2.2 4.2-.02 7.91 1.336 11.102 4.083 3.286 2.83 5.26 6.431 5.839 10.784.663 4.991-.55 9.479-3.717 13.35-2.84 3.47-6.502 5.523-10.925 6.147-2.883.407-5.661.007-8.363-1.043-.648-.252-.647-.274-.297-.887 1.233-2.16 2.445-4.335 3.7-6.483 2.296-3.93 6.966-5.37 11.033-3.426.24.114.442.247.638-.091.218-.375-.088-.45-.28-.586-2.703-1.905-4.192-4.512-4.427-7.854-.121-1.72.195-3.351.908-4.91.027-.058.063-.114.082-.175.066-.224.334-.452-.015-.671-.353-.222-.482.051-.632.283-.577.889-1.265 1.686-2.104 2.315-3.324 2.492-6.88 2.884-10.653 1.141-.179-.083-.369-.318-.588-.039-.23.293-.128.47.152.66 1.345.917 2.367 2.12 3.026 3.627.479 1.094.69 2.253.751 3.488Z"/><path stroke="#000" stroke-opacity=".12" stroke-width="2" d="M31.879 11c4.44-.021 8.384 1.42 11.759 4.325 3.47 2.988 5.568 6.812 6.178 11.41.698 5.255-.586 10.023-3.934 14.116-2.999 3.665-6.888 5.844-11.559 6.504-3.07.433-6.022.003-8.866-1.102a4.224 4.224 0 0 1-.488-.215c-.143-.078-.481-.283-.622-.715-.137-.419.004-.78.063-.918.067-.158.167-.331.244-.467 1.227-2.148 2.448-4.338 3.705-6.49 2.044-3.5 5.799-5.234 9.543-4.68-1.612-1.823-2.526-4.063-2.712-6.704-.065-.911-.017-1.8.137-2.668a8.385 8.385 0 0 1-.3.24c-1.782 1.335-3.669 2.138-5.651 2.352a10.38 10.38 0 0 1-3.293-.181c.474.608.874 1.28 1.196 2.016.541 1.236.77 2.523.834 3.841l.002.046-.002.046a11.39 11.39 0 0 1-1.542 5.288c-2.764 4.817-5.484 9.658-8.223 14.499-.144.254-.362.628-.696.925a2.074 2.074 0 0 1-1.467.531 2.231 2.231 0 0 1-1.431-.537 2.177 2.177 0 0 1-.717-1.38c-.033-.26-.023-.544-.023-.662-.002-6.954-.035-13.924.008-20.888.042-7.096 3.128-12.568 9.156-16.19 2.678-1.608 5.618-2.327 8.7-2.342Z"/></g></g></g><defs><clipPath id="a"><path fill="#fff" d="M0 0h64v64H0z"/></clipPath><clipPath id="b"><path fill="#fff" d="M0 0h64v64H0z"/></clipPath><clipPath id="c"><rect width="64" height="64" fill="#fff" rx="24"/></clipPath><filter id="e" width="139.209" height="147.889" x="-38.209" y="-47.103" color-interpolation-filters="sRGB" filterUnits="userSpaceOnUse"><feFlood flood-opacity="0" result="BackgroundImageFix"/><feBlend in="SourceGraphic" in2="BackgroundImageFix" result="shape"/><feGaussianBlur result="effect1_foregroundBlur_4_117" stdDeviation="12"/></filter><filter id="f" width="66" height="72" x="-1" y="3" color-interpolation-filters="sRGB" filterUnits="userSpaceOnUse"><feFlood flood-opacity="0" result="BackgroundImageFix"/><feColorMatrix in="SourceAlpha" result="hardAlpha" values="0 0 0 0 0 0 0 0 0 0 0 0 0 0 0 0 0 0 127 0"/><feOffset dy="7"/><feGaussianBlur stdDeviation="7"/><feComposite in2="hardAlpha" operator="out"/><feColorMatrix values="0 0 0 0 0 0 0 0 0 0 0 0 0 0 0 0 0 0 0.15 0"/><feBlend in2="BackgroundImageFix" result="effect1_dropShadow_4_117"/><feBlend in="SourceGraphic" in2="effect1_dropShadow_4_117" result="shape"/></filter></defs></svg>
